Modules/BetterCms.Module.Root/Scss/base_64/icons/cp-notification-warn.svg

<svg xmlns="http://www.w3.org/2000/svg" viewBox="0 0 21 21">
 <path fill="#e7da4b" fill-rule="evenodd" d="m10.5 21c-5.799 0-10.5-4.701-10.5-10.5 0-5.799 4.701-10.5 10.5-10.5 5.799 0 10.5 4.701 10.5 10.5 0 5.799-4.701 10.5-10.5 10.5m0-18.667c-4.51 0-8.167 3.657-8.167 8.167 0 4.51 3.657 8.167 8.167 8.167 4.51 0 8.167-3.657 8.167-8.167 0-4.51-3.657-8.167-8.167-8.167m0 13.222c-.644 0-1.167-.522-1.167-1.166 0-.644.523-1.167 1.167-1.167.644 0 1.167.523 1.167 1.167 0 .644-.523 1.166-1.167 1.166m0-3.84c-.644 0-1.167-.522-1.167-1.166v-3.938c0-.644.523-1.167 1.167-1.167.644 0 1.167.523 1.167 1.167v3.938c0 .644-.523 1.166-1.167 1.166"/>
</svg>

<svg xmlns="http://www.w3.org/2000/svg" preserveAspectRatio="xMidYMid" viewBox="0 0 21 21">
  <path fill="#e7da4b" fill-rule="evenodd" d="M10.500,21.000 C4.701,21.000 0.000,16.299 0.000,10.500 C0.000,4.701 4.701,-0.000 10.500,-0.000 C16.299,-0.000 21.000,4.701 21.000,10.500 C21.000,16.299 16.299,21.000 10.500,21.000 ZM10.500,2.333 C5.990,2.333 2.333,5.990 2.333,10.500 C2.333,15.010 5.990,18.667 10.500,18.667 C15.010,18.667 18.667,15.010 18.667,10.500 C18.667,5.990 15.010,2.333 10.500,2.333 ZM10.500,15.555 C9.856,15.555 9.333,15.033 9.333,14.389 C9.333,13.745 9.856,13.222 10.500,13.222 C11.144,13.222 11.667,13.745 11.667,14.389 C11.667,15.033 11.144,15.555 10.500,15.555 ZM10.500,11.715 C9.856,11.715 9.333,11.193 9.333,10.549 L9.333,6.611 C9.333,5.967 9.856,5.444 10.500,5.444 C11.144,5.444 11.667,5.967 11.667,6.611 L11.667,10.549 C11.667,11.193 11.144,11.715 10.500,11.715 Z"/>
</svg>
